src/16/actions/zoom-in-x.svg

<svg xmlns="http://www.w3.org/2000/svg" viewBox="0 0 16 16">
  <defs id="defs3051">
    <style type="text/css" id="current-color-scheme">
      .ColorScheme-Text {
        color:#5d656b;
      }
      </style>
  </defs>
 <path style="fill:currentColor;fill-opacity:1;stroke:none" 
       d="M 2 2 L 2 3 L 2 4 L 3 4 L 3 3 L 4 3 L 4 2 L 3 2 L 2 2 z M 11.171875 2.671875 L 10.464844 3.3789062 L 12.085938 5 L 7.4296875 5 L 7.4296875 6 L 12.085938 6 L 10.464844 7.6210938 L 11.171875 8.328125 L 13.292969 6.2070312 L 14 5.5 L 11.171875 2.671875 z M 2 7 L 2 9 L 3 9 L 3 7 L 2 7 z M 2 10 L 2 14 L 6 14 L 6 10 L 2 10 z M 3 11 L 5 11 L 5 13 L 3 13 L 3 11 z M 13 12 L 13 13 L 12 13 L 12 14 L 13 14 L 14 14 L 14 12 L 13 12 z M 7 13 L 7 14 L 9 14 L 9 13 L 7 13 z "
     class="ColorScheme-Text"
     />
</svg>

<svg xmlns="http://www.w3.org/2000/svg" viewBox="0 0 16 16"><path d="M2 2v2h1V3h1V2H2zm9.172.672l-.707.707L12.085 5H7.43v1h4.656l-1.621 1.621.707.707 2.121-2.121L14 5.5l-2.828-2.828zM2 7v2h1V7H2zm0 3v4h4v-4H2zm1 1h2v2H3v-2zm10 1v1h-1v1h2v-2h-1zm-6 1v1h2v-1H7z" fill="currentColor" color="#5d656b"/></svg>
